app/assets/images/heroicons/solid/arrow-turn-down-left.svg

<svg width="24" height="24" viewBox="0 0 24 24" fill="none" xmlns="http://www.w3.org/2000/svg">
<path fill-rule="evenodd" clip-rule="evenodd" d="M20.2388 3.74902C19.8245 3.74902 19.4887 4.08483 19.4887 4.49906V15H5.54982L8.01949 12.53C8.31238 12.2371 8.31236 11.7622 8.01944 11.4693C7.72653 11.1764 7.25165 11.1764 6.95877 11.4693L3.20889 15.2197C2.91603 15.5126 2.91603 15.9875 3.20889 16.2804L6.95877 20.0307C7.25165 20.3236 7.72653 20.3237 8.01944 20.0308C8.31236 19.7379 8.31238 19.263 8.01949 18.9701L5.54982 16.5001H20.2388C20.653 16.5001 20.9888 16.1643 20.9888 15.75V4.49906C20.9888 4.08483 20.653 3.74902 20.2388 3.74902Z" fill="black"/>
</svg>

<svg xmlns="http://www.w3.org/2000/svg" viewBox="0 0 24 24" fill="currentColor" aria-hidden="true" data-slot="icon">
  <path fill-rule="evenodd" d="M20.239 3.749a.75.75 0 0 0-.75.75V15H5.549l2.47-2.47a.75.75 0 0 0-1.06-1.06l-3.75 3.75a.75.75 0 0 0 0 1.06l3.75 3.75a.75.75 0 1 0 1.06-1.06L5.55 16.5h14.69a.75.75 0 0 0 .75-.75V4.5a.75.75 0 0 0-.75-.751Z" clip-rule="evenodd"/>
</svg>
